X: 199
T: Wanton Bess
%%VWML:Wrights-3753-p100-0
F: http://www.vwml.org/record/Wrights/3753/p100
%R: reel
B: Daniel Wright "Wright's Compleat Collection of Celebrated Country Dances" 1740 p.100
S: http://library.efdss.org/cgi-bin/dancebooks.cgi
Z: 2014 John Chambers <jc:trillian.mit.edu>
M: C|
N: Repeats modified to match the "Each strain twice" instruction.
L: 1/8
K: G
%-------------------------
Bc |\
B2A2 G2F2 | G4 d4 | BcBA GdcB | AGFE D2Bc |\
B2A2 G2F2 | G4 g4 | efge dcBA | G6 :|
|: ef |\
gdBd gdBd | gagf efed | c2B2 cBAG | F4 D2ef |\
gdgd fdfd | gbag fagf | g2d2 B2Ad | G6 :|
%-------------------------
%%center Each strain twice.
%%begintext align
%% The 1st and 2d Man figure thro' the 1st and 2d
%% Wo. and turn proper .| the 1st and 2d Wo. do
%% the same :| the 1st Cu. go the figure sides below
%% the 3d Cu. take hands with the 3d Cu. and go
%% half round .| then take hands as before and go
%% back again, the 1st Cu. sett and cast up into the
%% 2d Cu. Place :|
%%endtext
%-------------------------
%%sep 2 4 300
T: Unconstant Cloe
T: Longways &c.
%R: reel
B: Daniel Wright "Wright's Compleat Collection of Celebrated Country Dances" 1740 p.100
S: http://library.efdss.org/cgi-bin/dancebooks.cgi
Z: 2014 John Chambers <jc:trillian.mit.edu>
N: The 2nd strain has initial repeat but no final repeat; not fixed. N: "Round O" on the staff after the final double bar.
M: C|
L: 1/8
K: D
%-------------------------
dc |\
d2A2 B2dc | d2D2 E2dc | d2A2 BcdE | (GF)(ED) D2 :: FG |\ A2A2 A2Bc | d2d2 d2cd | B2B2 B2cd | efed c2dc |
d2A2 B2dc | d2D2 E2dc | d2A2 (Bc)(dE) | (GF)(ED) D2de |\ f2dc B2cd | e2cB A2fe | d2ef gfed | c4 B2 |] %-------------------------
%%begintext align
%% The 1st and 2d Cu. sett striking their Feet to the %% Ground, and cross over the same again, then the %% 1st Man change with the 2d Wo. and the 1st Wo. %% do the same with the 2d Man, and turn all four %% half round, then right and left quite round and %% turn.
%%endtext
%-------------------------
%%sep 2 4 300
